src/render/svg/Ruby.svg

<svg class="icon" viewBox="0 0 1024 1024" version="1.1" xmlns="http://www.w3.org/2000/svg"
     xmlns:xlink="http://www.w3.org/1999/xlink" width="512" height="512">
  <path
    d="M710.826667 749.653333l197.546666 175.36-389.12-30.72c76.373333-46.08 139.093333-101.12 186.026667-144.64h5.12z m218.88 104.96l36.266666-476.586666c-17.92 46.08-46.506667 99.413333-83.626666 156.586666z m-205.653334-115.626666l197.12 174.933333-52.48-358.4a1524.053333 1524.053333 0 0 1-144.64 183.04z m-230.4 170.666666a689.92 689.92 0 0 1-130.56 55.893334l454.4-30.72-323.84-25.6z m-379.733333-229.546666l119.04 278.186666 98.133333-324.693333z m245.76-62.72l331.52 106.666666L606.72 388.266667z m265.386667-261.973334l309.333333-20.906666-241.493333-197.546667zM801.28 51.2l-202.666667-0.853333 90.026667 63.146666z m-746.666667 510.72L47.786667 759.466667l48.64-88.746667z m110.933334 79.36c38.4 2.56 77.653333-5.973333 116.906666-23.466667a621.226667 621.226667 0 0 0 81.493334-46.933333 962.133333 962.133333 0 0 0 119.466666-102.4c144.213333-142.933333 203.52-302.933333 140.373334-366.506667-14.933333-15.36-36.693333-23.04-64-23.04-83.2-0.426667-207.36 62.293333-313.173334 167.253334s-166.826667 219.306667-167.253333 303.36c0 29.866667 8.106667 53.333333 24.746667 69.973333s35.413333 20.906667 61.44 22.186667z m300.8 263.253333l13.653333-7.253333-133.546667-256.853333-100.266666 332.8 7.68-0.853334 26.026666-3.84a634.026667 634.026667 0 0 0 162.133334-51.2l24.746666-11.946666z m272.64-212.48l2.986666-3.84 6.826667-7.68 9.386667-11.52 13.226666-16.64 12.373334-15.36 12.8-16.64c9.813333-12.8 19.2-26.026667 29.866666-40.533333s21.333333-30.72 31.573334-46.506667l-17.92-11.093333-207.786667-126.72 81.92 325.12 24.32-27.733333z m231.68-522.666666l-255.146667-35.84 243.2 198.826666a416 416 0 0 0 16.64-81.493333c0.426667-3.413333 0.426667-7.253333 0.853333-11.093333s0.426667-6.826667 0.426667-10.24a231.68 231.68 0 0 0-5.973333-60.586667z m-98.133334 349.013333l2.133334-2.986667c4.693333-6.826667 11.946667-17.92 19.626666-31.573333 21.333333-37.546667 47.786667-91.306667 58.88-130.986667l-317.44 21.333334 210.773334 129.28 25.6 15.786666z m-380.586666 375.466667h0.853333c69.12-38.4 130.986667-85.76 200.533333-153.173334l-337.066666-109.226666zM46.933333 795.306667c1.28 43.946667 10.666667 80.213333 27.733334 107.946666l15.786666-187.733333z m61.44-92.16l-18.346666 216.32c26.026667 33.706667 60.586667 49.066667 111.786666 49.066666h16.213334l-8.96-22.613333c-19.626667-49.066667-75.946667-188.16-101.12-242.346667zM966.826667 156.16a153.6 153.6 0 0 0-14.08-31.573333c-23.04-38.4-62.72-62.72-118.186667-72.533334l-123.733333 68.266667z m0 0"
  ></path>
</svg>

<svg xmlns="http://www.w3.org/2000/svg" width="512" height="512" class="icon" viewBox="0 0 1024 1024">
    <path d="m710.82667 749.65333 197.54666 175.36-389.12-30.72c76.37334-46.08 139.09334-101.12 186.02667-144.64h5.12zm218.88 104.96 36.26666-476.58666c-17.92 46.08-46.50666 99.41333-83.62666 156.58666zM724.05333 738.98667l197.12 174.93333-52.48-358.4a1524.05 1524.05 0 0 1-144.64 183.04zm-230.4 170.66666a689.92 689.92 0 0 1-130.56 55.89334l454.4-30.72-323.84-25.6zM113.92 680.10667l119.04 278.18666L331.09333 633.6zm245.76-62.72L691.2 724.05333l-84.48-335.78666zm265.38667-261.97334L934.4 334.50667 692.90667 136.96zM801.28 51.2l-202.66667-.85333L688.64 113.49333zM54.61333 561.92l-6.82666 197.54667 48.64-88.74667zm110.93334 79.36c38.4 2.56 77.65333-5.97333 116.90666-23.46667A621.23 621.23 0 0 0 363.94667 570.88a962.133 962.133 0 0 0 119.46666-102.4c144.21334-142.93333 203.52-302.93333 140.37334-366.50667-14.93334-15.36-36.69334-23.04-64-23.04-83.2-.42666-207.36 62.29334-313.17334 167.25334S79.78667 465.49333 79.36 549.54667c0 29.86666 8.10667 53.33333 24.74667 69.97333s35.41333 20.90667 61.44 22.18667zm300.8 263.25333L480 897.28 346.45333 640.42667l-100.26666 332.8 7.68-.85334 26.02666-3.84a634.027 634.027 0 0 0 162.13334-51.2l24.74666-11.94666zm272.64-212.48 2.98666-3.84 6.82667-7.68 9.38667-11.52 13.22666-16.64 12.37334-15.36 12.8-16.64c9.81333-12.8 19.2-26.02666 29.86666-40.53333s21.33334-30.72 31.57334-46.50667l-17.92-11.09333L632.32 395.52l81.92 325.12 24.32-27.73333zm231.68-522.66666-255.14667-35.84 243.2 198.82666A416 416 0 0 0 975.36 250.88c.42667-3.41333.42667-7.25333.85333-11.09333s.42667-6.82667.42667-10.24a231.68 231.68 0 0 0-5.97333-60.58667zM872.53333 518.4l2.13334-2.98667c4.69333-6.82666 11.94666-17.92 19.62666-31.57333 21.33334-37.54667 47.78667-91.30667 58.88-130.98667l-317.44 21.33334 210.77334 129.28 25.6 15.78666zM491.94667 893.86667H492.8c69.12-38.4 130.98667-85.76 200.53333-153.17334L356.26667 631.46667zm-445.01334-98.56C48.21333 839.25333 57.6 875.52 74.66667 903.25333L90.45333 715.52zm61.44-92.16-18.34666 216.32c26.02666 33.70666 60.58666 49.06666 111.78666 49.06666h16.21334l-8.96-22.61333C189.44 896.85333 133.12 757.76 107.94667 703.57333zM966.82667 156.16a153.6 153.6 0 0 0-14.08-31.57333c-23.04-38.4-62.72-62.72-118.18667-72.53334L710.82667 120.32zm0 0"/>
</svg>
